!!!OTL: Jaegers Sinn und Lebensgriff.
!!!OTL-incipit: GRUEN IST DIE FARBE DER HOFFNUNG
!!!COM: H. G. Naegeli
!!!ARE: Europa, Mitteleuropa, Deutschland
!!!SCT: F0666
!!!TXL: @@DE
!!!YEM: Copyright 1995, estate of Helmut Schaffrath.
**kern	**text	**text	**text
*ICvox	*	*	*
*clefG2	*	*	*
*M6/8	*	*	*
*k[f#]	*	*	*
*G:	*	*	*
!LO:TX:a:t=Gemüthlich.	!	!	!
!LO:TX:a:t=P:only the highest voice encoded:problem	!	!	!
{8dd	1._Grün	2._Es	3._Und
=1	=1	=1	=1
4dd	iſt	geht	Al-
8b/	die	hin-	-les
(>8.b/	Far-	-auf,	gilt
16a)	-be	.	ihm
8b/	der	hin-	die
=2	=2	=2	=2
4.cc/	Hoffnung,	-un-	Wei-
4a}	.	-ter,	-te,
{8a	des	geht	und
=3	=3	=3	=3
4b/	Jä-	her	raſt-
8g	-gers	und	-los
(>8.g	freundliche	geht	eilt
16a)	.	.	.
8b/	.	wohl	er
=4	=4	=4	=4
[4.a	Kleid.	hin,	fort.
8a]	.	.	.
8r}	.	.	.
{8d	Er	und	Ge-
=5	=5	=5	=5
4g	will	lauſcht	-ſang
8a	in	in	berg-
(>8.b/	Herb-	blühen-	-auf
16a)	.	.	.
8g	-ſtes-	-den	berg-
=6	=6	=6	=6
4.a	-1._ta-	2._Thalen,	-3._un-
4d}	-gen	.	-ter,
{8a	ſich	und	der
=7	=7	=7	=7
4b/	je-	ſieht	macht
8a	-der	in	das
(>8.g	Sorg'	Mor-	Herʒ
16a)	.	.	.
8b/	ent-	-gen-	ihm
=8	=8	=8	=8
4.a	-ſchlagen	-ſtrahlen	munter,
4d}	.	.	.
{8dd	in	Ge-	und
=9	=9	=9	=9
4.dd	tie-	-wölk	klingt
4.b/	-fer	ſo	an
=10	=10	=10	=10
4cc/	Ein-	freundlich	je-
8a	-ſamkeit,	.	-dem
4a}	.	ʒiehn,	Ort,
{8cc/	in	Ge-	und
=11	=11	=11	=11
4b/	tie-	-wölk	klingt
8g	-fer	ſo	an
(8a	Einſam-	freundlich	je-
8b/)	.	.	.
8a	.	.	-dem
=12	=12	=12	=12
[>4.a	-keit,	ʒieh'n,	Ort,
4a]	.	.	.
8r	.	.	.
=13	=13	=13	=13
4r}	.	.	.
{8b/	1._in	2._ſo	3._an
(8aL	Ein-	freundlich	je-
8bJ)	.	.	.
8a	-ſam-	.	-dem
=14	=14	=14	=14
4.g	-keit.	ʒieh'n.	Ort.
4r}	.	.	.
==	==	==	==
!!!AGN: Staende -, Jaeger - Lied
!!!ONB: ESAC (Essen Associative Code) Database: FINK
!!!AMT: compound duple
!!!AIN: vox
!!!EED: Helmut Schaffrath
!!!EEV: 1.0
!!!RDF**kern: > = above
!!!GTL: Soldaten- und Jaegerlieder
!!Text: Frisius
!!!source: Musikalischer Hausschatz der Deutschen. Eine Sammlung von über 1000 Liedern und Gesängen mit Singstimmen und Klavierbegleitung. Leipzig, Litterarisches Verlags-Haus.
!!!page: 440
!!!URL-scan: https://www.digitale-sammlungen.de/en/view/bsb11144622?page=407
!!!ENC: Anna Maria Matuszewska
!!!EEV: 2024/05/08
*-	*-	*-	*-
